aries-site/public/highlightImages/grid-dark.svg

<svg width="120" height="120" viewBox="0 0 120 120" fill="none" xmlns="http://www.w3.org/2000/svg">
<path fill-rule="evenodd" clip-rule="evenodd" d="M25.7151 0H8.57227V120H25.7151V0ZM54.2868 0H37.1439V120H54.2868V0ZM65.7149 0H82.8577V120H65.7149V0ZM111.429 0H94.2866V120H111.429V0Z" fill="#263040"/>
</svg>

<?xml version="1.0" encoding="utf-8"?>
<!-- Generator: Adobe Illustrator 23.1.0, SVG Export Plug-In . SVG Version: 6.00 Build 0)  -->
<svg version="1.1" id="Layer_1" xmlns="http://www.w3.org/2000/svg" xmlns:xlink="http://www.w3.org/1999/xlink" x="0px" y="0px"
	 viewBox="0 0 120 120" style="enable-background:new 0 0 120 120;" xml:space="preserve">
<style type="text/css">
	.st0{fill-rule:evenodd;clip-rule:evenodd;fill:#263040;}
</style>
<path class="st0" d="M25.7,0H8.6v120h17.1V0z M54.3,0H37.1v120h17.1V0z M65.7,0h17.1v120H65.7V0z M111.4,0H94.3v120h17.1V0z"/>
</svg>
